fs/bookmark_multiple_16_regular.svg

<svg viewBox="0 0 16 16" fill="none" xmlns="http://www.w3.org/2000/svg" height="1em" width="1em">
  <path d="M4.6543 2C4.94884 1.40731 5.56045 1 6.26719 1H10.9004C12.6125 1 14.0004 2.38792 14.0004 4.1V11.4667C14.0004 12.1734 13.5931 12.785 13.0004 13.0796V4.1C13.0004 2.9402 12.0602 2 10.9004 2H4.6543ZM4.8 3C3.80589 3 3 3.80589 3 4.8V14.4991C3 14.6724 3.08971 14.8333 3.2371 14.9244C3.38448 15.0155 3.56853 15.0238 3.72353 14.9463L7.5 13.059L11.2765 14.9463C11.4315 15.0238 11.6155 15.0155 11.7629 14.9244C11.9103 14.8333 12 14.6724 12 14.4991V4.8C12 3.80589 11.1941 3 10.2 3H4.8ZM4 4.8C4 4.35817 4.35817 4 4.8 4H10.2C10.6418 4 11 4.35817 11 4.8V13.6902L7.72353 12.0527C7.58281 11.9824 7.41719 11.9824 7.27647 12.0527L4 13.6902V4.8Z" fill="#212121"/>
</svg>

<svg viewBox="0 0 16 16" fill="none" xmlns="http://www.w3.org/2000/svg" height="1em" width="1em">
  <path d="M4.654 2a1.8 1.8 0 0 1 1.613-1H10.9A3.1 3.1 0 0 1 14 4.1v7.367a1.8 1.8 0 0 1-1 1.613V4.1A2.1 2.1 0 0 0 10.9 2H4.654ZM4.8 3A1.8 1.8 0 0 0 3 4.8v9.7a.5.5 0 0 0 .724.446L7.5 13.06l3.777 1.887A.5.5 0 0 0 12 14.5V4.8A1.8 1.8 0 0 0 10.2 3H4.8ZM4 4.8a.8.8 0 0 1 .8-.8h5.4a.8.8 0 0 1 .8.8v8.89l-3.276-1.637a.5.5 0 0 0-.448 0L4 13.69V4.8Z" fill="#212121"/>
</svg>
